app/images/icons/globe-icon.svg

<?xml version="1.0" encoding="UTF-8" standalone="no"?>
<svg width="64px" height="77px" viewBox="0 0 64 77" version="1.1" xmlns="http://www.w3.org/2000/svg" xmlns:xlink="http://www.w3.org/1999/xlink" xmlns:sketch="http://www.bohemiancoding.com/sketch/ns">
    <!-- Generator: Sketch 3.1 (8751) - http://www.bohemiancoding.com/sketch -->
    <title>globe-icon</title>
    <desc>Created with Sketch.</desc>
    <defs></defs>
    <g id="Page-1" stroke="none" stroke-width="1" fill="none" fill-rule="evenodd" sketch:type="MSPage">
        <g id="globe-icon" sketch:type="MSLayerGroup" fill="#0A0B09">
            <path d="M28.16,5.06666667 C40.8576,5.06666667 51.2,15.2886667 51.2,27.8666667 C51.2,40.4332667 40.8576,50.6666667 28.16,50.6666667 C15.4496,50.6666667 5.12,40.4332667 5.12,27.8666667 C5.12,15.2886667 15.4496,5.06666667 28.16,5.06666667 L28.16,5.06666667 Z M28.16,53.2012667 C42.2784,53.2012667 53.76,41.838 53.76,27.8666667 C53.76,13.8953333 42.2784,2.53333333 28.16,2.53333333 C14.0416,2.53333333 2.56,13.8953333 2.56,27.8666667 C2.56,41.838 14.0416,53.2012667 28.16,53.2012667 L28.16,53.2012667 Z" id="Fill-2980" sketch:type="MSShapeGroup"></path>
            <path d="M29.4432,67.1881167 C29.0208,67.17545 28.5856,67.13745 28.1632,67.13745 C27.728,67.13745 27.3056,67.17545 26.8832,67.1881167 L26.8832,63.2867833 C27.3056,63.29945 27.7408,63.3247833 28.1632,63.3247833 C28.5856,63.3247833 29.0208,63.29945 29.4432,63.2867833 L29.4432,67.1881167 L29.4432,67.1881167 Z M13.2768,73.4707833 C17.808,70.97545 22.8768,69.6707833 28.1632,69.6707833 C33.4496,69.6707833 38.5184,70.97545 43.0496,73.4707833 L13.2768,73.4707833 L13.2768,73.4707833 Z M53.5072,52.9507833 C67.1776,39.4227833 67.4592,17.5981167 54.3904,3.70278333 L55.952,2.17011667 C56.4512,1.66345 56.4512,0.866716667 55.952,0.37145 C55.4528,-0.123816667 54.6336,-0.123816667 54.1344,0.37145 L49.0144,5.43811667 C48.5152,5.93338333 48.5152,6.73011667 49.0144,7.23678333 C49.2704,7.47618333 49.5904,7.60538333 49.9232,7.60538333 C50.256,7.60538333 50.576,7.47618333 50.832,7.23678333 L52.5728,5.50145 C64.656,18.3973833 64.3616,38.6133833 51.6896,51.1521167 C39.0176,63.6921167 18.5888,63.9847167 5.5584,52.0261167 L7.312,50.30345 C7.8112,49.7967833 7.8112,49.00005 7.312,48.5047833 C6.8128,48.0095167 5.9936,48.0095167 5.4944,48.5047833 L0.3744,53.57145 C-0.1248,54.0667167 -0.1248,54.86345 0.3744,55.3701167 C0.6304,55.6095167 0.9504,55.73745 1.2832,55.73745 C1.616,55.73745 1.936,55.6095167 2.192,55.3701167 L3.7408,53.8247833 C9.6032,59.2207833 16.8608,62.3241167 24.3232,63.1081833 L24.3232,67.3781167 C18.4736,68.0367833 12.9568,70.1761833 8.1952,73.7241167 C7.7472,74.05345 7.568,74.62345 7.7472,75.1301167 C7.9264,75.64945 8.4128,76.0053833 8.9632,76.0053833 L47.3632,76.0053833 C47.9136,76.0053833 48.4,75.64945 48.5792,75.1301167 C48.7456,74.62345 48.5664,74.05345 48.1312,73.7241167 C43.3696,70.1761833 37.8528,68.0367833 32.0032,67.3781167 L32.0032,63.1081833 C39.8624,62.27345 47.4912,58.8901833 53.5072,52.9507833 L53.5072,52.9507833 Z" id="Fill-2981" sketch:type="MSShapeGroup"></path>
        </g>
    </g>
</svg>

<svg width="64" height="77" viewBox="0 0 64 77" xmlns="http://www.w3.org/2000/svg">
    <desc>
        Created with Sketch.
    </desc>
    <g fill="#0A0B09">
        <path d="M28.16 5.067c12.698 0 23.04 10.222 23.04 22.8 0 12.566-10.342 22.8-23.04 22.8-12.71 0-23.04-10.234-23.04-22.8 0-12.578 10.33-22.8 23.04-22.8zm0 48.134c14.118 0 25.6-11.362 25.6-25.333 0-13.972-11.482-25.334-25.6-25.334-14.118 0-25.6 11.362-25.6 25.334 0 13.97 11.482 25.334 25.6 25.334z"/>
        <path d="M29.443 67.188c-.422-.013-.857-.05-1.28-.05-.435 0-.857.037-1.28.05v-3.9c.423.01.858.037 1.28.037.423 0 .858-.026 1.28-.038v3.9zM13.277 73.47c4.53-2.495 9.6-3.8 14.886-3.8 5.287 0 10.355 1.305 14.887 3.8H13.277zm40.23-20.52C67.177 39.424 67.46 17.6 54.39 3.704l1.562-1.533c.5-.507.5-1.303 0-1.8-.5-.494-1.318-.494-1.818 0l-5.12 5.068c-.5.495-.5 1.292 0 1.8.256.238.576.367.91.367.332 0 .652-.13.908-.368l1.74-1.736c12.084 12.897 11.79 33.113-.882 45.652-12.672 12.54-33.1 12.833-46.132.874l1.754-1.723c.5-.506.5-1.303 0-1.798-.5-.495-1.318-.495-1.818 0L.374 53.57c-.5.497-.5 1.293 0 1.8.256.24.576.367.91.367.332 0 .652-.127.908-.367l1.55-1.545c5.86 5.396 13.12 8.5 20.58 9.283v4.27c-5.848.66-11.365 2.798-16.127 6.346-.448.33-.627.9-.448 1.406.18.52.666.875 1.216.875h38.4c.55 0 1.037-.356 1.216-.875.166-.507-.014-1.077-.45-1.406-4.76-3.548-10.277-5.687-16.127-6.346v-4.27c7.86-.835 15.488-4.218 21.504-10.157z"/>
    </g>
</svg>
